X: 041914
T: Dashing White Sergeant HP
S: "Roche Collection of Traditional Irish Music" [II/16/227]
L: 1/8
M: 4/4
R: hornpipe
K: G
ge | dBAB G2 AB | cAGF G2 Bc | dBge dBGA | B2 AA A2 ge |
dBAB G2 AB | cAGF G2 Bc | dBge dBAB | G2 GG G2 :|
Bc | dBge d2 Bc | dBge d2 Bc | dBge dBGA | B2 AA A2 ge |
dBAB G2 AB | cAGF G2 Bc | dBge dBAB | G2 GG G2 :|
